X: 22
M:6/8
L:1/8
K:F
c|AFF Acc|f2 F fed|e/2f/2gc dcB|Acc f2 g|
ab/2a/2g ab/2a/2g|fdd d2 e/2f/2|gcg ga/2g/2f|ec/2d/2e f2 c|
c/2B/2A/2B/2c/2A/2 G>AG|FAf fFf|gcg afa|agf ece|fFF F3||
fc'b a/2b/2c'/2b/2a/2g/2|fcf fcf|bg/2a/2b/2g/2 fd/2e/2f/2d/2|

